build/images/icons/step6.svg

<svg height="60" width="60" xmlns="http://www.w3.org/2000/svg"><path d="M36 35c0 3.859-3.14 7-7 7s-7-3.141-7-7c0-1.65.392-3.205 1.132-4.497l7.004-12.007a1 1 0 011.728 1.008l-7 12C24.3 32.487 24 33.698 24 35c0 2.757 2.243 5 5 5s5-2.243 5-5a4.982 4.982 0 00-4.166-4.931.999.999 0 11.332-1.972A6.974 6.974 0 0136 35m-6 23C14.561 58 2 45.439 2 30S14.561 2 30 2s28 12.561 28 28-12.561 28-28 28m0-58C13.458 0 0 13.458 0 30s13.458 30 30 30 30-13.458 30-30S46.542 0 30 0" fill="#008fcb" fill-rule="evenodd"/></svg>

<?xml version="1.0" ?><svg height="60px" version="1.1" viewBox="0 0 60 60" width="60px" xmlns="http://www.w3.org/2000/svg" xmlns:xlink="http://www.w3.org/1999/xlink"><title/><desc/><defs/><g fill="none" fill-rule="evenodd" id="People" stroke="none" stroke-width="1"><g fill="#000000" id="Icon-76"><path d="M36,35 C36,38.859 32.86,42 29,42 C25.14,42 22,38.859 22,35 C22,33.35 22.392,31.795 23.132,30.503 L30.136,18.496 C30.415,18.02 31.026,17.859 31.504,18.136 C31.981,18.414 32.142,19.026 31.864,19.504 L24.864,31.504 C24.3,32.487 24,33.698 24,35 C24,37.757 26.243,40 29,40 C31.757,40 34,37.757 34,35 C34,32.548 32.248,30.474 29.834,30.069 C29.29,29.978 28.922,29.462 29.014,28.918 C29.105,28.373 29.618,28.006 30.166,28.097 C33.546,28.663 36,31.566 36,35 M30,58 C14.561,58 2,45.439 2,30 C2,14.561 14.561,2 30,2 C45.439,2 58,14.561 58,30 C58,45.439 45.439,58 30,58 M30,0 C13.458,0 0,13.458 0,30 C0,46.542 13.458,60 30,60 C46.542,60 60,46.542 60,30 C60,13.458 46.542,0 30,0" id="number-six" fill="#008fcb"/></g></g></svg>
